X:36-2
T:La belle est au jardin d'amour (var)
R:Chanson
N:
O:France
A:Picardie
Z:<anamnese@laposte.net> -- http://anamnese.fr.st
M:6/8
L:1/8
Q:1/4=90
K:F
d A =B | (2cd (2ef | d3 d A =B | (2cd (2ef |
[M:9/8] Hd6 A d e | [M:6/8] f2 d c d c-|(c2 B) A3 |
z2 z f g a | (2eA (2de | f3 f g a | e3 A d e | [M:9/8] (f2e) Hd6 ||
W:La belle est au jardin d'amour, (2x)
W:Voil un mois ou six semaines
